components/Common/Svg/svgs/dribble.svg

<svg
  width="48"
  height="49"
  viewBox="0 0 48 49"
  fill="none"
  xmlns="http://www.w3.org/2000/svg"
>
  <path
    d="M33.393 19.4161C32.4394 17.7634 31.0669 16.3913 29.4139 15.4381C27.7385 14.4621 25.9101 13.9736 23.9288 13.9736C21.9474 13.9736 20.119 14.4621 18.4425 15.4381C16.7671 16.414 15.4404 17.7408 14.4645 19.4161C13.4885 21.0915 13 22.921 13 24.9024C13 26.8838 13.4874 28.7132 14.4645 30.3886C15.4178 32.0416 16.7904 33.4138 18.4436 34.3667C20.119 35.3426 21.9474 35.8311 23.9288 35.8311C25.9101 35.8311 27.7385 35.3426 29.415 34.3667C31.068 33.4135 32.4405 32.0413 33.3941 30.3886C34.3701 28.7132 34.8575 26.8838 34.8575 24.9024C34.8575 22.921 34.3701 21.0915 33.393 19.4161ZM23.9288 15.7878C26.1145 15.7878 28.0511 16.4872 29.7428 17.885C28.7374 19.1681 27.2445 20.2238 25.2621 21.0544C24.167 19.073 22.9801 17.4184 21.6982 16.0927C22.4247 15.8918 23.1749 15.7893 23.9288 15.7878ZM16.836 19.2194C17.6351 18.2046 18.6463 17.3766 19.7988 16.7932C21.1233 18.1058 22.3397 19.744 23.449 21.7112C21.2632 22.3669 18.9529 22.6948 16.5191 22.6948C15.8928 22.6948 15.4196 22.6806 15.0983 22.6511C15.4333 21.399 16.025 20.2304 16.836 19.2194ZM14.8142 24.9024C14.8142 24.8434 14.8175 24.7712 14.8251 24.6838C14.8328 24.5964 14.836 24.5242 14.836 24.4652C15.1136 24.4805 15.5366 24.4871 16.1049 24.4871C19.0185 24.4871 21.7288 24.086 24.2348 23.2849C24.4391 23.6926 24.6511 24.1516 24.8686 24.6619C23.426 24.9822 21.9463 25.7614 20.4305 27.0007C18.9146 28.24 17.8087 29.5438 17.1092 30.9132C15.5792 29.1788 14.8142 27.1756 14.8142 24.9024ZM23.9288 34.017C21.8588 34.017 20.001 33.3754 18.354 32.0946C19.0108 30.7973 20.0195 29.5569 21.3824 28.3777C22.7441 27.1974 24.096 26.4619 25.4369 26.1701C26.2828 28.5078 26.8549 30.9356 27.1418 33.4049C26.1176 33.8052 25.0283 34.0126 23.9288 34.017ZM31.6663 29.6892C30.951 30.8416 29.9877 31.8202 28.8467 32.5536C28.5844 30.2804 28.0817 28.0652 27.3396 25.9078C28.3582 25.8357 29.2685 25.7985 30.0718 25.7985C30.945 25.7985 31.9144 25.8357 32.9778 25.9078C32.8351 27.2519 32.3865 28.5454 31.6663 29.6892ZM30.3111 24.2248C29.0434 24.2248 27.8708 24.2762 26.7921 24.3778C26.5636 23.7798 26.3157 23.1893 26.0489 22.6073C28.3068 21.6172 29.909 20.415 30.8565 19.0009C32.1679 20.5462 32.8827 22.309 32.9985 24.2904C32.1111 24.2467 31.2149 24.2248 30.3111 24.2248Z"
    fill="currentColor"
  ></path>
  <circle
    opacity="0.3"
    cx="24"
    cy="24.9727"
    r="23.5"
    stroke="currentColor"
  ></circle>
</svg>

<svg width="48" height="49" viewBox="0 0 48 49" fill="none" xmlns="http://www.w3.org/2000/svg"><path d="M33.393 19.416a10.854 10.854 0 0 0-3.98-3.978c-1.675-.976-3.503-1.464-5.484-1.464-1.982 0-3.81.488-5.486 1.464a10.85 10.85 0 0 0-3.979 3.978C13.488 21.091 13 22.921 13 24.902c0 1.982.487 3.811 1.464 5.487a10.846 10.846 0 0 0 3.98 3.978c1.675.976 3.503 1.464 5.485 1.464 1.981 0 3.81-.488 5.486-1.464a10.854 10.854 0 0 0 3.98-3.978c.975-1.676 1.462-3.505 1.462-5.487 0-1.981-.487-3.81-1.464-5.486Zm-9.464-3.628c2.186 0 4.122.7 5.814 2.097-1.006 1.283-2.498 2.339-4.48 3.17-1.096-1.982-2.283-3.637-3.565-4.962a8.432 8.432 0 0 1 2.23-.305Zm-7.093 3.431a8.87 8.87 0 0 1 2.963-2.426c1.324 1.313 2.54 2.951 3.65 4.918-2.186.656-4.496.984-6.93.984-.626 0-1.1-.014-1.42-.044a9.343 9.343 0 0 1 1.737-3.432Zm-2.022 5.683c0-.059.004-.13.011-.218.008-.088.011-.16.011-.219.278.015.7.022 1.269.022 2.913 0 5.624-.401 8.13-1.202.204.408.416.867.634 1.377-1.443.32-2.923 1.1-4.439 2.339-1.515 1.239-2.621 2.543-3.32 3.912-1.53-1.734-2.296-3.737-2.296-6.01Zm9.115 9.115c-2.07 0-3.928-.642-5.575-1.922.657-1.298 1.666-2.538 3.028-3.717 1.362-1.18 2.714-1.916 4.055-2.208a32.176 32.176 0 0 1 1.705 7.235 8.924 8.924 0 0 1-3.213.612Zm7.737-4.328a9.127 9.127 0 0 1-2.82 2.865 31.457 31.457 0 0 0-1.506-6.646 39.16 39.16 0 0 1 2.732-.11c.873 0 1.842.038 2.906.11a8.85 8.85 0 0 1-1.312 3.781Zm-1.355-5.464c-1.268 0-2.44.051-3.519.153a29.617 29.617 0 0 0-.743-1.77c2.258-.99 3.86-2.193 4.808-3.607 1.31 1.545 2.026 3.308 2.142 5.29a54.645 54.645 0 0 0-2.688-.066Z" fill="currentColor"/><circle opacity=".3" cx="24" cy="24.973" r="23.5" stroke="currentColor"/></svg>
